X:1
T:Holywell Hornpipe
M:C|
S:Juergen Gier <Juergen.Gier@post.rwth-aachen.de>
K:G
|  d3g  edcB | d2gg edcB | DGBG DGBG | DGBd cBAG |
|  d3g  edcB | d2gg edcB | gfgd ecAF | FGGF GABc :|
|: d2de dBGB | cdef eAAB | c2AB cBAG | Bdef G2G2 |
|  dBdg eceg | fg (3agf g2 (3def | gfgd ecAF | GAAB AGBc :|
